public/icons/nav-rail-icon-btn.svg

<svg width="46" height="46" viewBox="0 0 46 46" fill="none" xmlns="http://www.w3.org/2000/svg">
<g clip-path="url(#clip0_817_2476)">
<path d="M22.3021 37.0164C24.0214 36.5159 25.7954 36.1311 27.5423 35.6816C28.213 35.5129 28.8857 35.3414 29.557 35.1643C29.8962 35.0744 30.2234 34.9873 30.5658 34.8908C30.738 34.842 30.9106 34.7921 31.0762 34.7421C31.1742 34.7111 31.2413 34.6918 31.3476 34.6545C31.3978 34.6368 31.4306 34.6265 31.4973 34.5993C31.5629 34.5651 31.5777 34.5926 31.7995 34.4238L31.8095 34.4149C32.5421 33.8405 33.2761 33.2693 34.0122 32.7095L34.1071 32.6141C36.4839 29.9283 39.0097 28.0954 40.3363 23.4626C40.3711 22.7818 40.1961 22.3677 40.0893 22.0611C40.0598 21.9666 39.9031 21.6598 39.7892 21.517C39.6695 21.3557 39.5745 21.2565 39.4908 21.1702C39.3257 21.0032 39.1968 20.8916 39.0705 20.783C38.8215 20.5711 38.5941 20.3932 38.367 20.2184C37.9157 19.8722 37.4742 19.5502 37.0272 19.2289C34.0841 17.1294 31.1229 15.145 28.1236 13.1833C27.6183 12.8541 27.1189 12.5285 26.6057 12.1983C26.3483 12.033 26.0927 11.8691 25.8113 11.6959C25.5287 11.5303 25.2184 11.31 24.6025 11.0838C23.9677 10.8507 23.2722 10.5605 22.4172 10.3024C21.5561 10.1142 20.5152 9.58055 18.592 10.3581C15.5329 11.756 13.947 14.3313 12.5095 16.3823C12.252 16.7691 11.996 17.1533 11.7395 17.5383C11.0347 18.5971 10.3287 19.6554 9.62273 20.7371C9.27199 21.2754 8.91757 21.8241 8.56521 22.3948C8.38799 22.6828 8.21039 22.9761 8.02488 23.3067C7.93339 23.4709 7.83753 23.6462 7.73115 23.8665C7.67979 23.9745 7.62339 24.0937 7.55225 24.2787C7.52185 24.3587 7.47647 24.4854 7.43836 24.6284C7.3978 24.8156 7.31938 24.9975 7.34626 25.5563C7.46248 26.4587 7.67958 26.6056 7.77088 26.7957C7.88668 26.9737 7.96106 27.0628 8.04049 27.1581C8.18081 27.3227 8.2939 27.4344 8.39839 27.5351C8.60508 27.732 8.78122 27.8798 8.95436 28.0214C9.30257 28.3043 9.62607 28.5434 9.95286 28.778C10.6036 29.2433 11.2489 29.6703 11.8954 30.0834C13.1905 30.9092 14.494 31.6779 15.8153 32.4199C16.3396 32.7131 16.8602 33.0052 17.4451 33.3057C18.0405 33.5746 18.6705 34.0346 20.0387 34.1223C20.593 34.1343 21.5773 34.1247 22.4601 33.7447C23.7162 33.2311 25.1964 32.3369 26.1853 31.2466C27.3743 29.9597 28.9378 28.7293 30.2425 26.8043C30.4465 26.4702 30.7874 26.0243 30.9909 25.2517C31.0875 24.8667 31.1336 24.3125 30.929 23.7593C30.7282 23.2037 30.3351 22.8144 30.0058 22.5903C27.6594 21.2464 25.863 19.3854 22.3315 18.9893C21.9481 19.0003 21.8487 19.0862 21.7426 19.1264C21.6313 19.1797 21.5642 19.2217 21.4918 19.2676C21.3538 19.3569 21.2443 19.441 21.1391 19.5249C20.9291 19.6936 20.7448 19.8602 20.5649 20.0291C20.2069 20.3666 19.8734 20.7109 19.5486 21.0627C18.901 21.7814 18.2897 22.4478 17.7258 23.3655L17.3908 23.8002L17.9013 24.1913C18.3736 24.4466 18.8463 24.7013 19.3194 24.9554C20.1871 25.4214 21.0561 25.8854 21.9264 26.3472L22.0443 26.439L22.1925 26.3246C22.7444 25.7199 23.2952 25.114 23.8448 24.5068C23.1945 25.0046 22.5453 25.5038 21.8973 26.0041L22.1633 25.9815C21.3858 25.3763 20.6069 24.7731 19.8268 24.172C19.4014 23.8442 18.9756 23.5171 18.5494 23.1905L18.7248 24.0164C19.2306 23.4269 19.9693 22.8016 20.6569 22.2434C21.0072 21.9621 21.3646 21.6884 21.7212 21.4387C21.8989 21.3146 22.0779 21.1955 22.2471 21.0961C22.3301 21.0476 22.4126 21.0031 22.476 20.9761C22.5069 20.9629 22.5331 20.9547 22.5355 20.9582C22.5256 20.9572 22.5515 20.9958 22.2764 21.009C24.0299 21.3891 26.2513 23.4737 28.2254 25.0276C28.2126 25.0335 28.0876 24.9478 28.0134 24.7641C27.9383 24.5812 27.9603 24.4341 27.9536 24.4232C27.9444 24.4057 27.822 24.6099 27.5754 24.9061C26.6102 26.069 25.0604 27.1416 23.5196 28.5096C22.7557 29.1896 22.0277 29.5421 20.9665 29.9082C20.849 29.9305 20.7346 29.9385 20.2258 29.8962C20.4003 29.9224 19.9699 29.7712 19.5295 29.4931C19.0811 29.2264 18.5898 28.9133 18.0981 28.6007C16.8698 27.8177 15.6575 27.0205 14.4825 26.2017C13.8979 25.7936 13.3181 25.3773 12.7766 24.9616C12.5069 24.7543 12.2459 24.5463 12.0201 24.3508C11.9105 24.2558 11.807 24.1605 11.7468 24.0981C11.7182 24.0689 11.6993 24.0443 11.7243 24.0715C11.7399 24.0902 11.7624 24.1126 11.826 24.2094C11.8533 24.2522 11.9009 24.3277 11.958 24.4528C12.0021 24.5541 12.1144 24.8012 12.1462 25.1973C12.1682 25.682 12.105 25.7857 12.0868 25.8891C12.0666 25.9648 12.0523 26.0021 12.0478 26.0157C12.0364 26.0467 12.0478 26.0203 12.0634 25.9914C12.0974 25.9261 12.1586 25.8171 12.2227 25.7088C12.3553 25.4845 12.5139 25.233 12.6757 24.9815C13.0002 24.478 13.3512 23.9525 13.6996 23.4328C14.403 22.3849 15.1186 21.3268 15.8279 20.2615C16.0861 19.8738 16.3436 19.4854 16.6021 19.0932C17.9231 17.1302 19.1661 15.3254 20.6839 14.6581C20.4198 14.7703 20.3764 14.7109 20.5069 14.7216C20.6317 14.7249 20.8724 14.7655 21.142 14.8353C21.6909 14.9751 22.3578 15.2137 23.1024 15.4531C23.0555 15.4212 23.2621 15.5142 23.5002 15.648C23.7368 15.7782 23.993 15.925 24.2491 16.0718C24.7642 16.3676 25.2829 16.6672 25.8062 16.9676C28.8799 18.7376 31.998 20.5066 35.0413 22.2769C35.4973 22.5445 35.9476 22.8115 36.374 23.0764C36.5859 23.2082 36.796 23.3426 36.9682 23.4605C37.0524 23.5177 37.1306 23.5757 37.1582 23.5933C37.1711 23.6003 37.1685 23.5975 37.1307 23.5434C37.0982 23.5053 37.0061 23.3185 37.0265 23.3477C37.0976 23.4687 37.0789 23.5082 37.0918 23.296C36.8094 25.3311 34.4638 28.7631 32.6047 31.311L32.6996 31.2155C32.0359 31.8861 31.3859 32.5639 30.7421 33.2465L30.752 33.2376C30.9273 33.1084 30.8445 33.1825 30.8376 33.1823C30.8083 33.1994 30.785 33.213 30.7504 33.231C30.6733 33.2703 30.6172 33.2994 30.5335 33.3389C30.3919 33.4076 30.2352 33.4798 30.0776 33.5513C29.7635 33.6939 29.4577 33.8301 29.1397 33.97C28.5101 34.2472 27.8747 34.5228 27.2415 34.7981C25.593 35.5254 23.9113 36.2074 22.3021 37.0164Z" fill="#1E1E1E"/>
</g>
<defs>
<clipPath id="clip0_817_2476">
<rect width="33" height="31" fill="white" transform="translate(7 7)"/>
</clipPath>
</defs>
</svg>

<svg xmlns="http://www.w3.org/2000/svg" width="46" height="46" fill="none" viewBox="0 0 46 46"><g clip-path="url(#a)"><path fill="#1e1e1e" d="M22.302 37.016c1.72-.5 3.493-.885 5.24-1.334q1.008-.253 2.015-.518c.34-.09.666-.177 1.009-.273.172-.049.345-.099.51-.149.098-.03.165-.05.272-.087.05-.018.083-.029.15-.056.065-.034.08-.006.301-.175l.01-.01c.733-.574 1.467-1.145 2.203-1.705l.095-.095c2.377-2.686 4.903-4.519 6.23-9.151.034-.681-.14-1.095-.248-1.402a2.5 2.5 0 0 0-.3-.544 3 3 0 0 0-.298-.347 7 7 0 0 0-.42-.387c-.25-.212-.477-.39-.704-.565a53 53 0 0 0-1.34-.99c-2.943-2.099-5.904-4.083-8.903-6.045-.506-.329-1.005-.655-1.518-.985-.258-.165-.513-.329-.795-.502-.282-.166-.593-.386-1.209-.612-.634-.233-1.33-.524-2.185-.782-.86-.188-1.902-.721-3.825.056-3.06 1.398-4.645 3.973-6.082 6.024l-.77 1.156c-.705 1.06-1.411 2.117-2.117 3.2-.351.537-.705 1.086-1.058 1.657a26 26 0 0 0-.54.912c-.092.164-.187.34-.294.56a5 5 0 0 0-.179.412c-.03.08-.076.206-.114.35-.04.187-.119.368-.092.927.116.903.334 1.05.425 1.24.116.178.19.267.27.362.14.165.253.276.357.377.207.197.383.345.556.486.349.283.672.522.999.757.65.465 1.296.892 1.942 1.305a81 81 0 0 0 3.92 2.337c.525.293 1.045.585 1.63.886.596.269 1.226.729 2.594.816.554.012 1.538.003 2.421-.377 1.256-.514 2.736-1.408 3.725-2.498 1.19-1.287 2.753-2.518 4.058-4.443.204-.334.544-.78.748-1.552.096-.385.143-.94-.062-1.493a2.45 2.45 0 0 0-.923-1.169c-2.347-1.344-4.143-3.205-7.675-3.6-.383.01-.482.096-.588.136a2 2 0 0 0-.251.142c-.138.089-.248.173-.353.257-.21.169-.394.335-.574.504a21 21 0 0 0-1.016 1.034c-.648.718-1.26 1.385-1.823 2.303l-.335.434.51.391a602 602 0 0 0 4.025 2.156l.118.092.148-.114q.828-.908 1.653-1.818-.975.747-1.948 1.497l.266-.023a602 602 0 0 0-3.614-2.79l.176.825c.506-.59 1.244-1.214 1.932-1.773.35-.28.708-.555 1.064-.804.178-.124.357-.244.526-.343.083-.048.166-.093.229-.12.03-.013.057-.021.06-.018-.01 0 .015.038-.26.051 1.754.38 3.975 2.465 5.95 4.019-.013.006-.138-.08-.213-.264-.075-.183-.053-.33-.06-.34-.009-.018-.131.186-.378.482-.965 1.163-2.515 2.236-4.055 3.604-.764.68-1.492 1.032-2.553 1.398-.118.022-.232.03-.741-.012.174.026-.256-.125-.697-.403-.448-.267-.94-.58-1.43-.892-1.23-.783-2.441-1.58-3.617-2.4a47 47 0 0 1-1.705-1.24c-.27-.207-.531-.415-.757-.61a5 5 0 0 1-.273-.253c-.029-.03-.048-.054-.023-.026.016.018.038.04.102.137.027.043.075.119.132.244.044.101.156.348.188.744.022.485-.041.589-.06.692-.02.076-.034.113-.038.127-.012.03 0 .004.015-.025.034-.065.096-.174.16-.282.132-.224.29-.476.453-.727.324-.504.675-1.03 1.024-1.55.703-1.047 1.419-2.105 2.128-3.17q.387-.582.774-1.169c1.321-1.963 2.564-3.768 4.082-4.435-.264.112-.308.053-.177.064.125.003.365.043.635.113.549.14 1.216.379 1.96.618-.047-.032.16.061.398.195.237.13.493.277.75.424l1.556.896c3.074 1.77 6.192 3.539 9.235 5.309.456.267.907.534 1.333.8.212.131.422.266.594.383.084.058.163.116.19.133.013.007.01.005-.027-.05a1 1 0 0 1-.105-.195c.072.12.053.16.066-.052-.283 2.035-2.628 5.467-4.487 8.015l.095-.096q-.994 1.007-1.958 2.031l.01-.008c.175-.13.093-.056.086-.056-.03.017-.053.031-.088.049a19.976 19.976 0 0 1-.673.32c-.313.143-.62.28-.937.419q-.947.415-1.899.828c-1.648.727-3.33 1.41-4.939 2.218"/></g><defs><clipPath id="a"><path fill="#fff" d="M7 7h33v31H7z"/></clipPath></defs></svg>
